X:1
T: Irish Reel
P:Kerr's 2nd #247
R:Reel
Q: 232
K:D
M:4/4
L:1/8
|:dB|AF DE FD FG|AF ED d2 cB|AF DE FE FG|AB =cA G2 dB|
AF DE FD FG|AF ED d2 cB|AF DE FE FG|AB =cA G2 FG|
Ad dB AG FG|Ac de f2 FG|Ad dB AG FG|AB =cA G2 FG|
Ad dB AG FG|Ac de f2 ef|ge fd ec dB|AB =cA G2:|
